X: 1304
T: The Satin Slipper
R:Reel
N:Collected by McFadden
B:O'Neill's 1304
Z:Transcribed by Trish O'Neil
M:C|
L:1/8
K:Bm
A3B AFFA|dcBA BAFA|dcBd cBAc|BAFA (3Bcd cB|
A2AB AFFA|dcBA BAFA|dfed cedc|BAFAB3||
c|defg agab|afeg fBBc|defg agab|afeg fddc|
defg agab|afec defg|agfe fedc|dcBA (3Bcd cB|]


